X:1
T:Title
%%score [ ( 1 2 ) ( 3 4 ) ]
L:1/8
Q:1/4=120
M:4/4
K:Eb
V:1 treble nm="Midi_74"
V:2 treble 
V:3 bass nm="Midi_74"
V:4 bass 
V:1
 G8 | B4 A4 | G8 || E8 | A4 G4 | F4 F4 | E8 |] %7
V:2
 E8 | F4 E4 | E8 || E8 | D4 E4 | E4 D4 | B,8 |] %7
V:3
 B,8 | D4 C4 | B,8 || C8 | A,4 B,4 | C4 B,2 A,2 | G,8 |] %7
V:4
 E,8 | E,4 E,4 | E,8 || A,8 | F,4 E,4 | A,,4 B,,4 | E,8 |] %7

